icon-themes/sifr_svg/cmd/sc_bullet.svg

<svg viewBox="0 0 16 16" xmlns="http://www.w3.org/2000/svg"><path d="m3.5 0c-1.9329966 0-3.5 1.5670034-3.5 3.5s1.5670034 3.5 3.5 3.5h1.5v2h-1.5c-1.9329966 0-3.5 1.567003-3.5 3.5s1.5670034 3.5 3.5 3.5 3.5-1.567003 3.5-3.5v-1.5h2v1.5c0 1.932997 1.567003 3.5 3.5 3.5s3.5-1.567003 3.5-3.5-1.567003-3.5-3.5-3.5h-1.5v-2h1.5c1.932997 0 3.5-1.5670034 3.5-3.5s-1.567003-3.5-3.5-3.5-3.5 1.5670034-3.5 3.5v1.5h-2v-1.5c0-1.9329966-1.5670034-3.5-3.5-3.5zm0 2c.8284271 0 1.5.6715729 1.5 1.5v1.5h-1.5c-.8284271 0-1.5-.6715729-1.5-1.5s.6715729-1.5 1.5-1.5zm9 0c.828427 0 1.5.6715729 1.5 1.5s-.671573 1.5-1.5 1.5h-1.5v-1.5c0-.8284271.671573-1.5 1.5-1.5zm-5.5 5h2v2h-2zm-3.5 4h1.5v1.5c0 .828427-.6715729 1.5-1.5 1.5s-1.5-.671573-1.5-1.5.6715729-1.5 1.5-1.5zm7.5 0h1.5c.828427 0 1.5.671573 1.5 1.5s-.671573 1.5-1.5 1.5-1.5-.671573-1.5-1.5z" fill="#555753"/></svg>

<svg xmlns="http://www.w3.org/2000/svg" viewBox="0 0 16 16">
 <path
   style="fill:#555753"
   d="M 3.5,0 C 1.5670034,0 0,1.5670034 0,3.5 0,5.4329966 1.5670034,7 3.5,7 H 5 V 9 H 3.5 C 1.5670034,9 0,10.567003 0,12.5 0,14.432997 1.5670034,16 3.5,16 5.4329966,16 7,14.432997 7,12.5 V 11 h 2 v 1.5 C 9,14.432997 10.567003,16 12.5,16 14.432997,16 16,14.432997 16,12.5 16,10.567003 14.432997,9 12.5,9 H 11 V 7 h 1.5 C 14.432997,7 16,5.4329966 16,3.5 16,1.5670034 14.432997,0 12.5,0 10.567003,0 9,1.5670034 9,3.5 V 5 H 7 V 3.5 C 7,1.5670034 5.4329966,0 3.5,0 Z m 0,2 C 4.3284271,2 5,2.6715729 5,3.5 V 5 H 3.5 C 2.6715729,5 2,4.3284271 2,3.5 2,2.6715729 2.6715729,2 3.5,2 Z m 9,0 C 13.328427,2 14,2.6715729 14,3.5 14,4.3284271 13.328427,5 12.5,5 H 11 V 3.5 C 11,2.6715729 11.671573,2 12.5,2 Z M 7,7 H 9 V 9 H 7 Z M 3.5,11 H 5 v 1.5 C 5,13.328427 4.3284271,14 3.5,14 2.6715729,14 2,13.328427 2,12.5 2,11.671573 2.6715729,11 3.5,11 Z m 7.5,0 h 1.5 C 13.328427,11 14,11.671573 14,12.5 14,13.328427 13.328427,14 12.5,14 11.671573,14 11,13.328427 11,12.5 Z"
   />
</svg>
